X: 13836
T: Four Shoves, The
R: polka
M: 2/4
K: Gmajor
|:GF/G/ BA|GE EF/E/|DG BA|GB dB|
GF/G/ BA|GE EF/E/|DG BA|1 G2 GF:|2 G2 G2||
|:Bd g2|fe e2|c/d/c/B/ ce|ed d2|
Bd g2|fe e2|cB/c/ ed|1 G2 G2:|2 G2 GF||

